X:1
T:Title
%%score { 1 | 2 }
L:1/8
M:6/8
K:Ab
V:1 treble nm="Grand Piano"
V:2 bass 
V:1
 z3 z2[Q:1/4=72] [CE] | [CE][Ec][DB] [CA][A,C][B,D] | [CE][CA][CA] [DA]<[DG]E | Edd dFG | %4
 [CB][CA][DF] [CE]2 [CE] | [CE][Ec][DB] [CA][A,C][B,D] | [CE][CA][EG] [DF]<[FB][Fc] | %7
 [Fe][Fd][=EB] [_Ed][Ec][CA] | BFG [CA]2 A | AGF [=EG][Ec][EG] | [GB][FA][=EG] A<FF | FEd dc[Ec] | %12
 [=Dc][DB]F B2 E | E[Ec][DB] [CA][K:bass][E,A,C][E,B,D] | [A,CE][CEA][_Gc] [Fe]<[Fd][Fd] | %15
 dc_c [E=c][CA]C |[M:5/8] EFG [CA]2 |] %17
V:2
 z3 z2 [A,,A,] | [A,,A,][A,,A,][A,,E,] [A,,E,][A,,E,][A,,E,] | %2
 [A,,A,][A,,E,][A,,E,] [B,,E,]<[B,,E,][E,G,D] | [E,G,D][G,B,E][G,B,E] [E,G,E][E,A,D][E,B,D] | %4
 [A,,A,][A,,E,][A,,A,] [A,,A,]2 [A,,A,] | [A,,A,][A,,A,][A,,E,] [A,,E,][A,,E,][A,,E,] | %6
 [A,,A,][A,,E,][C,A,] [D,A,]<[D,D][C,=A,] | [B,,B,][D,B,][D,D] [A,C][A,,A,][A,,E,] | %8
 [E,G,D][E,A,D][E,B,D] [A,,A,]2 [F,CF] | [F,CF][F,B,C][F,A,C] [C,C][C,G,][C,C] | %10
 [C,C][C,C][C,C] [F,CF]<[F,A,C][F,A,C] | [E,G,D][E,G,D][G,B,E] [A,E][A,E][A,,A,] | %12
 [B,,A,][B,,F,][F,B,=D] [E,G,E]2 [G,B,_D] | [A,C][A,,A,][A,,E,] [A,,E,]A,,A,, | %14
 A,,A,,[A,,A,] [D,A,]<[D,A,][D,A,] | [A,F][A,E][K:bass][A,=D] [A,,A,][A,,E,][A,,E,A,] | %16
[M:5/8] [E,G,B,][E,A,D][E,B,D] [A,,A,]2 |] %17

